var/www/djoe/jsxc/img/newgui/toggle-mediapanel.svg

<?xml version="1.0" encoding="UTF-8" standalone="no"?>
<!-- Created with Inkscape (http://www.inkscape.org/) -->

<svg
   xmlns:dc="http://purl.org/dc/elements/1.1/"
   xmlns:cc="http://creativecommons.org/ns#"
   xmlns:rdf="http://www.w3.org/1999/02/22-rdf-syntax-ns#"
   xmlns:svg="http://www.w3.org/2000/svg"
   xmlns="http://www.w3.org/2000/svg"
   xmlns:sodipodi="http://sodipodi.sourceforge.net/DTD/sodipodi-0.dtd"
   xmlns:inkscape="http://www.inkscape.org/namespaces/inkscape"
   width="16"
   height="16"
   id="svg2"
   version="1.1"
   inkscape:version="0.91 r13725"
   sodipodi:docname="toggle-mediapanel.svg">
  <defs
     id="defs4" />
  <sodipodi:namedview
     id="base"
     pagecolor="#000000"
     bordercolor="#666666"
     borderopacity="1.0"
     inkscape:pageopacity="1"
     inkscape:pageshadow="2"
     inkscape:zoom="14.455785"
     inkscape:cx="11.777426"
     inkscape:cy="10.542891"
     inkscape:document-units="px"
     inkscape:current-layer="layer1"
     showgrid="false"
     inkscape:window-width="1366"
     inkscape:window-height="709"
     inkscape:window-x="0"
     inkscape:window-y="26"
     inkscape:window-maximized="1"
     fit-margin-top="0"
     fit-margin-left="0"
     fit-margin-right="0"
     fit-margin-bottom="0" />
  <metadata
     id="metadata7">
    <rdf:RDF>
      <cc:Work
         rdf:about="">
        <dc:format>image/svg+xml</dc:format>
        <dc:type
           rdf:resource="http://purl.org/dc/dcmitype/StillImage" />
        <dc:title></dc:title>
      </cc:Work>
    </rdf:RDF>
  </metadata>
  <g
     inkscape:label="Layer 1"
     inkscape:groupmode="layer"
     id="layer1"
     transform="translate(0,-1036.375)">
    <g
       id="g4180"
       transform="matrix(1,0,0,1.4028157,2e-7,-420.69107)">
      <path
         inkscape:connector-curvature="0"
         id="path6"
         d="m 2.9180294,1040.9903 1.6946297,0 0,-1.6811 -1.6946297,0 0,1.6811 z m 4.2346555,0 1.6946297,0 0,-1.6811 -1.6946297,0 0,1.6811 z m 4.2346551,0 1.69463,0 0,-1.6811 -1.69463,0 0,1.6811 z"
         style="fill:#ffffff;fill-opacity:0.61162079" />
      <path
         id="rect4150"
         transform="translate(0,1036.375)"
         d="m 1.2441406,5.3535156 0,7.7128904 13.5117184,0 0,-7.7128904 -13.5117184,0 z m 3.4238282,1.1972656 6.6640622,0 0,0.8867188 -6.6640622,0 0,-0.8867188 z m 0,2.2167969 6.6640622,0 0,0.8867188 -6.6640622,0 0,-0.8867188 z m 0,2.2148439 6.6640622,0 0,0.886719 -6.6640622,0 0,-0.886719 z"
         style="opacity:1;fill:#ffffff;fill-opacity:1;stroke:none;stroke-width:3.5;stroke-linecap:round;stroke-linejoin:round;stroke-miterlimit:4;stroke-dasharray:none;stroke-dashoffset:0;stroke-opacity:1"
         inkscape:connector-curvature="0" />
    </g>
  </g>
</svg>

<?xml version="1.0" encoding="UTF-8" standalone="no"?>
<!-- Created with Inkscape (http://www.inkscape.org/) -->

<svg
   xmlns:dc="http://purl.org/dc/elements/1.1/"
   xmlns:cc="http://creativecommons.org/ns#"
   xmlns:rdf="http://www.w3.org/1999/02/22-rdf-syntax-ns#"
   xmlns:svg="http://www.w3.org/2000/svg"
   xmlns="http://www.w3.org/2000/svg"
   xmlns:sodipodi="http://sodipodi.sourceforge.net/DTD/sodipodi-0.dtd"
   xmlns:inkscape="http://www.inkscape.org/namespaces/inkscape"
   width="16"
   height="16"
   id="svg2"
   version="1.1"
   inkscape:version="0.91 r13725"
   sodipodi:docname="toggle-mediapanel.svg">
  <defs
     id="defs4" />
  <sodipodi:namedview
     id="base"
     pagecolor="#000000"
     bordercolor="#666666"
     borderopacity="1.0"
     inkscape:pageopacity="1"
     inkscape:pageshadow="2"
     inkscape:zoom="14.455785"
     inkscape:cx="11.777426"
     inkscape:cy="10.542891"
     inkscape:document-units="px"
     inkscape:current-layer="layer1"
     showgrid="false"
     inkscape:window-width="1366"
     inkscape:window-height="709"
     inkscape:window-x="0"
     inkscape:window-y="26"
     inkscape:window-maximized="1"
     fit-margin-top="0"
     fit-margin-left="0"
     fit-margin-right="0"
     fit-margin-bottom="0" />
  <metadata
     id="metadata7">
    <rdf:RDF>
      <cc:Work
         rdf:about="">
        <dc:format>image/svg+xml</dc:format>
        <dc:type
           rdf:resource="http://purl.org/dc/dcmitype/StillImage" />
        <dc:title></dc:title>
      </cc:Work>
    </rdf:RDF>
  </metadata>
  <g
     inkscape:label="Layer 1"
     inkscape:groupmode="layer"
     id="layer1"
     transform="translate(0,-1036.375)">
    <g
       id="g4180">
      <path
         inkscape:connector-curvature="0"
         id="path6"
         d="m 2.9180294,1040.9903 1.6946297,0 0,-1.6811 -1.6946297,0 0,1.6811 z m 4.2346555,0 1.6946297,0 0,-1.6811 -1.6946297,0 0,1.6811 z m 4.2346551,0 1.69463,0 0,-1.6811 -1.69463,0 0,1.6811 z"
         style="fill:#ffffff;fill-opacity:0.61162079" />
      <path
         id="rect4150"
         transform="translate(0,1036.375)"
         d="M 1.2441406 5.3535156 L 1.2441406 13.066406 L 14.755859 13.066406 L 14.755859 5.3535156 L 1.2441406 5.3535156 z M 4.6679688 6.5507812 L 11.332031 6.5507812 L 11.332031 7.4375 L 4.6679688 7.4375 L 4.6679688 6.5507812 z M 4.6679688 8.7675781 L 11.332031 8.7675781 L 11.332031 9.6542969 L 4.6679688 9.6542969 L 4.6679688 8.7675781 z M 4.6679688 10.982422 L 11.332031 10.982422 L 11.332031 11.869141 L 4.6679688 11.869141 L 4.6679688 10.982422 z "
         style="opacity:1;fill:#ffffff;fill-opacity:1;stroke:none;stroke-width:3.5;stroke-linecap:round;stroke-linejoin:round;stroke-miterlimit:4;stroke-dasharray:none;stroke-dashoffset:0;stroke-opacity:1" />
    </g>
  </g>
</svg>
